X:201
T:Vid S\"atra kvarn
R:sl\"angpolska
H:Version 1 efter Gustav Bostr\"om, Torstorp, Risinge,
H:som hade den efter sin mor Charlotta Kristina Bostr\"om.
H:Version 2 efter Johan Oskar Carlsson, Bjursj\"ob\"ack, Risinge,
H:vars mor ocks{\aa} brukade sjunga den.
A:\"Osterg\"otland
B:SvL \"Ogl 5, SvL \"Ogl 40
Z:id:hn-sp-201
M:3/4
L:1/16
K:G
G3B d4 g4 | g2fg a2f2 d4 | d2f2 a2f2 d2f2 | g2g2 e2ce d4 ||
d2cd e2c2 A2c2 | c2Bc d2B2 G2B2 | d2cd e2c2 A2c2 | c2Bc d2B2 G2B2 |
G3B d2g2 g2B2 | dcBc A4 G4 ||
P:version 2
|: G3B d4 g4 | g2fg agfe d4 | defg a2a2 fdfa | g2g2 ege^c d4 :|
|: B2AB c2A2 A2c2 | c2Ac B2G2 G2B2 | B2AB c2A2 A2c2 |
c2Ac B2G2 G4 | G2AB cdef g2B2 | dcBc A4 G4 :|
W:Text till version 1:
W:Vid S\"atra kvarn d\"ar st{\aa}r en milesten,
W:som Hans i Ingelsta och gruvefogden gjort.
W:Och d\"ar var pr\"ast och klockare,
W:och flickorna de plockade.
W:Hans i Ingelsta och gruvefogden.
W:
<end>
<start>
